dist/assets/help-icon.svg

<svg width="16" height="16" viewBox="0 0 16 16" version="1.1" xmlns="http://www.w3.org/2000/svg" xmlns:xlink="http://www.w3.org/1999/xlink">
<title>help-icon</title>
<desc>Created using Figma</desc>
<g id="Canvas" transform="translate(-3994 273)">
<g id="help-icon">
<g id="Group 26">
<g id="Ellipse">
<mask id="mask0_outline_ins">
<use xlink:href="#path0_fill" fill="white" transform="translate(3994 -273)"/>
</mask>
<g mask="url(#mask0_outline_ins)">
<use xlink:href="#path1_stroke_2x" transform="translate(3994 -273)" fill="#00A5FF"/>
</g>
</g>
</g>
<g id="?">
<use xlink:href="#path2_fill" transform="translate(3999.6 -269)" fill="#00A5FF"/>
</g>
</g>
</g>
<defs>
<path id="path0_fill" d="M 16 8C 16 12.4183 12.4183 16 8 16C 3.58172 16 0 12.4183 0 8C 0 3.58172 3.58172 0 8 0C 12.4183 0 16 3.58172 16 8Z"/>
<path id="path1_stroke_2x" d="M 14.5 8C 14.5 11.5899 11.5899 14.5 8 14.5L 8 17.5C 13.2467 17.5 17.5 13.2467 17.5 8L 14.5 8ZM 8 14.5C 4.41015 14.5 1.5 11.5899 1.5 8L -1.5 8C -1.5 13.2467 2.75329 17.5 8 17.5L 8 14.5ZM 1.5 8C 1.5 4.41015 4.41015 1.5 8 1.5L 8 -1.5C 2.75329 -1.5 -1.5 2.75329 -1.5 8L 1.5 8ZM 8 1.5C 11.5899 1.5 14.5 4.41015 14.5 8L 17.5 8C 17.5 2.75329 13.2467 -1.5 8 -1.5L 8 1.5Z"/>
<path id="path2_fill" d="M 1.63246 4.93714L 1.64248 4.88C 1.69594 4.49143 1.81289 4.18286 1.99332 3.95429C 2.17375 3.72571 2.36086 3.53143 2.55465 3.37143C 2.75513 3.20381 2.93222 3.04381 3.08592 2.89143C 3.2463 2.73143 3.32649 2.5219 3.32649 2.26286C 3.32649 2.00381 3.2463 1.78667 3.08592 1.61143C 2.92554 1.42857 2.70167 1.33714 2.41432 1.33714C 2.13365 1.33714 1.91647 1.40952 1.76277 1.55429C 1.61575 1.69143 1.49547 1.87428 1.40191 2.10286C 1.35513 2.2019 1.29165 2.28952 1.21146 2.36571C 1.13126 2.43428 1.00764 2.46857 0.840573 2.46857L 0.449642 2.46857C 0.282578 2.46857 0.155609 2.41143 0.0687352 2.29714C -0.0114557 2.18286 -0.0214798 2.01524 0.0386634 1.79429C 0.152267 1.31429 0.399523 0.895237 0.78043 0.537142C 1.16802 0.179047 1.71265 0 2.41432 0C 3.12936 0 3.70406 0.190475 4.13843 0.571428C 4.57948 0.95238 4.8 1.48952 4.8 2.18286C 4.8 2.62476 4.71647 2.97524 4.5494 3.23429C 4.38234 3.49333 4.19189 3.71429 3.97804 3.89714C 3.7642 4.08 3.56038 4.25905 3.36659 4.43429C 3.17279 4.6019 3.05251 4.81905 3.00573 5.08571L 2.9957 5.14286C 2.96897 5.28762 2.91885 5.39429 2.84535 5.46286C 2.77852 5.53143 2.6716 5.56571 2.52458 5.56571L 2.08353 5.56571C 1.89642 5.56571 1.76611 5.51619 1.6926 5.41714C 1.61909 5.31048 1.59905 5.15048 1.63246 4.93714ZM 1.54224 7.33714L 1.54224 7.01714C 1.54224 6.79619 1.59236 6.63238 1.6926 6.52571C 1.79284 6.41143 1.93652 6.35429 2.12363 6.35429L 2.46444 6.35429C 2.65155 6.35429 2.79189 6.41143 2.88544 6.52571C 2.98568 6.63238 3.0358 6.79619 3.0358 7.01714L 3.0358 7.33714C 3.0358 7.55809 2.98568 7.72572 2.88544 7.84C 2.79189 7.94667 2.65155 8 2.46444 8L 2.12363 8C 1.93652 8 1.79284 7.94667 1.6926 7.84C 1.59236 7.72572 1.54224 7.55809 1.54224 7.33714Z"/>
</defs>
</svg>

<svg xmlns="http://www.w3.org/2000/svg" xmlns:xlink="http://www.w3.org/1999/xlink" width="16" height="16"><g transform="translate(-3994 273)"><mask id="A"><use xlink:href="#B" fill="#fff" x="3994" y="-273"/></mask><g mask="url(#A)"><use xlink:href="#C" fill="#00a5ff" x="3994" y="-273"/></g><use xlink:href="#D" fill="#00a5ff" x="3999.6" y="-269"/></g><defs><path id="B" d="M16 8A8 8 0 1 1 0 8a8 8 0 1 1 16 0z"/><path id="C" d="M14.5 8A6.5 6.5 0 0 1 8 14.5v3A9.5 9.5 0 0 0 17.5 8h-3zM8 14.5A6.5 6.5 0 0 1 1.5 8h-3A9.5 9.5 0 0 0 8 17.5v-3zM1.5 8A6.5 6.5 0 0 1 8 1.5v-3A9.5 9.5 0 0 0-1.5 8h3zM8 1.5A6.5 6.5 0 0 1 14.5 8h3A9.5 9.5 0 0 0 8-1.5v3z"/><path id="D" d="M1.632 4.937l.01-.057c.053-.39.17-.697.35-.926a3.82 3.82 0 0 1 .561-.583l.53-.48c.16-.16.24-.37.24-.63s-.08-.476-.24-.65c-.16-.183-.384-.274-.672-.274-.28 0-.498.072-.652.217-.147.137-.267.32-.36.55-.047.1-.1.187-.2.263-.08.07-.204.103-.37.103H.45c-.167 0-.294-.057-.38-.17-.08-.114-.1-.282-.03-.503.114-.48.36-.9.742-1.257C1.168.18 1.713 0 2.414 0c.715 0 1.3.2 1.724.57.44.38.662.918.662 1.61 0 .442-.084.792-.25 1.05a3.01 3.01 0 0 1-.571.663l-.61.537a1.08 1.08 0 0 0-.361.651l-.01.057c-.027.145-.077.25-.15.32-.067.07-.174.103-.32.103h-.44c-.187 0-.317-.05-.39-.15-.074-.107-.094-.267-.06-.48zm-.1 2.4v-.32c0-.22.05-.385.15-.49.1-.114.244-.17.43-.17h.34c.187 0 .327.057.42.17.1.107.15.27.15.49v.32c0 .22-.05.39-.15.503-.094.107-.234.16-.42.16h-.34c-.187 0-.33-.053-.43-.16-.1-.114-.15-.282-.15-.503z"/></defs></svg>
